svgs/sharp-light/house-night.svg

<svg xmlns="http://www.w3.org/2000/svg" viewBox="0 0 640 512"><!--! Font Awesome Pro 6.6.0 by @fontawesome - https://fontawesome.com License - https://fontawesome.com/license (Commercial License) Copyright 2024 Fonticons, Inc. --><path d="M113.6 0c-.5 0-1.1 0-1.6 0C50.1 0 0 50.1 0 112s50.1 112 112 112c30.5 0 58.2-12.2 78.4-32c.5-.5 1.1-1.1 1.6-1.6c9.5-9.7 17.2-21.1 22.7-33.7c-7.2 2.1-14.8 3.3-22.7 3.3c-5.1 0-10.1-.5-15-1.4c-37-7-65-39.5-65-78.6c0-17.4 5.5-33.5 15-46.6c7.4-10.3 17.2-18.8 28.6-24.6C142.6 3.3 128.5 .2 113.6 0zM32 112c0-36.3 24.2-66.9 57.3-76.7C83.3 49 80 64.1 80 80c0 46.4 28.2 86.2 68.5 103.2c-10.9 5.6-23.3 8.8-36.5 8.8c-44.2 0-80-35.8-80-80zm378.1-4.4L400 99.4l-10.1 8.2-216 176-12.4 10.1 20.2 24.8 12.4-10.1L224 284l0 212 0 16 16 0 320 0 16 0 0-16 0-212 29.9 24.4 12.4 10.1 20.2-24.8-12.4-10.1-216-176zM544 258l0 222-288 0 0-222L400 140.6 544 258zM336 272l0 16 0 96 0 16 16 0 96 0 16 0 0-16 0-96 0-16-16 0-96 0-16 0zm32 32l64 0 0 64-64 0 0-64zM272 0L240 0l0 16 0 32-32 0-16 0 0 32 16 0 32 0 0 32 0 16 32 0 0-16 0-32 32 0 16 0 0-32-16 0-32 0 0-32 0-16zM112 320l-32 0 0 16 0 32-32 0-16 0 0 32 16 0 32 0 0 32 0 16 32 0 0-16 0-32 32 0 16 0 0-32-16 0-32 0 0-32 0-16z"/></svg>

<svg xmlns="http://www.w3.org/2000/svg" viewBox="0 0 640 512"><!--! Font Awesome Pro 6.4.2 by @fontawesome - https://fontawesome.com License - https://fontawesome.com/license (Commercial License) Copyright 2023 Fonticons, Inc. --><path d="M113.6 0c-.5 0-1.1 0-1.6 0C50.1 0 0 50.1 0 112s50.1 112 112 112c30.5 0 58.2-12.2 78.4-32c.5-.5 1.1-1.1 1.6-1.6c9.5-9.7 17.2-21.1 22.7-33.7c-7.2 2.1-14.8 3.3-22.7 3.3c-5.1 0-10.1-.5-15-1.4c-37-7-65-39.5-65-78.6c0-17.4 5.5-33.5 15-46.6c7.4-10.3 17.2-18.8 28.6-24.6C142.6 3.3 128.5 .2 113.6 0zM32 112c0-36.3 24.2-66.9 57.3-76.7C83.3 49 80 64.1 80 80c0 46.4 28.2 86.2 68.5 103.2c-10.9 5.6-23.3 8.8-36.5 8.8c-44.2 0-80-35.8-80-80zm378.1-4.4L400 99.4l-10.1 8.2-216 176-12.4 10.1 20.2 24.8 12.4-10.1L224 284V496v16h16H560h16V496 284l29.9 24.4 12.4 10.1 20.2-24.8-12.4-10.1-216-176zM544 258V480H256V258L400 140.6 544 258zM336 272v16 96 16h16 96 16V384 288 272H448 352 336zm32 32h64v64H368V304zM272 0H240V16 48H208 192V80h16 32v32 16h32V112 80h32 16V48H304 272V16 0zM112 320H80v16 32H48 32v32H48 80v32 16h32V432 400h32 16V368H144 112V336 320z"/></svg>
